!!!!SEGMENT: d-mbs--4-mus-pr-11-beibd-4_waclaw-z-szamotul--ego-sum-pastor-bonus.krn
!!!cenid: 15xx:1118
!!!COM: Wacław z Szamotuł
!!!COM-rismID: pe30014770
!!!CDT: ~1520-~1560
!!!CNT:
!!!OTL: Ego sum pastor bonus
!!!PDT: 1564
!!!AGN:
!!!SMS-siglum: D-Mbs
!!!SMS-shelfmark: 4 Mus.pr. 11 Beibd.4
!!!SMS-shelfwork: W
!!!SMS-variant:
!!!SMS-altvar:
!!!NIFC-rismSourceID: 1000000583
!!!NIFC-rismChildID: 1000000583
!!!NIFC-islandoraID: none
!!!URL-pdf-islandora:
!!!URL-scan: https://stimmbuecher.digitale-sammlungen.de/view?id=bsb00073087 @EN{Scan on Bayerische Staatsbibliothek Website} @PL{Skany w portalu Bayerische Staatsbibliothek}
!!!ONB-nifc: UWAGA: Discantus: s. 88-89, Altus: s. 94-95, Tenor: s. 94-95, Bassus: s. 84-85
!!!AIN: 1 alto 1 bass 1 soprn 1 tenor
!!!key: G:mix
!!!filter-modern: sic -sq | shed -e "s/TX(.*):t=P:/tx$1:t=P:/LG" | shed -e "s/^custos:/Xcustos:/I" | shed -k -e "s/LO:N:vis/LO:n:vis:/L" | shed -e "s/:rj/:RJ/L" | shed -e "s/LO:DY:(a|b|rj)/LO:dy:$1/L" | shed -e "s/-//B" | modori -m | tie -s | autostem -r | humtr -p
**kern	**text	**kern	**text	**kern	**text	**kern	**text
*part4	*part4	*part3	*part3	*part2	*part2	*part1	*part1
*staff4	*staff4	*staff3	*staff3	*staff2	*staff2	*staff1	*staff1
*I"BASSVS.	*	*I"TENOR.	*	*I"ALTVS.	*	*I"DISCATVS.	*
*mI"Basso	*	*mI"Tenore	*	*mI"Alto	*	*mI"Soprano	*
*I'B	*	*I'T	*	*I'A	*	*I'S	*
*ICvox	*	*ICvox	*	*ICvox	*	*ICvox	*
*Ibass	*	*Itenor	*	*Ialto	*	*Isoprn	*
*clefF3	*	*clefC3	*	*clefC2	*	*clefG2.	*
*	*	*mclefGv2	*	*mclefG2	*	*mclefG2	*
*k[]	*	*k[]	*	*k[]	*	*k[]	*
*G:mix	*	*G:mix	*	*G:mix	*	*G:mix	*
*M2/1	*	*M2/1	*	*M2/1	*	*M2/1	*
*met(C|)	*	*met(C|)	*	*met(C|)	*	*met(C|)	*
*mmet(c|)	*	*mmet(c|)	*	*mmet(c|)	*	*mmet(c|)	*
=1-	=1-	=1-	=1-	=1-	=1-	=1-	=1-
00r	.	00r	.	00r	.	1g	E-
!	!	!	!	!	!	!	!LO:MO:mod=-go
.	.	.	.	.	.	1.dd	-Go
.	.	.	.	.	.	.	.
=2-	=2-	=2-	=2-	=2-	=2-	=2-	=2-
.	.	.	.	.	.	.	.
.	.	.	.	.	.	2a/	ſum
.	.	.	.	.	.	2cc\	paſ-
.	.	.	.	.	.	2dd\	-tor
=3-	=3-	=3-	=3-	=3-	=3-	=3-	=3-
00r	.	0r	.	1c	E-	1ee	bo-
!	!	!	!	!	!LO:MO:mod=-go	!	!
.	.	.	.	1.g	-Go	1dd	-nus
=4-	=4-	=4-	=4-	=4-	=4-	=4-	=4-
*	*	*	*	*	*	*	*ij
.	.	1G	E-	.	.	1b	E-
.	.	.	.	2d/	ſum	.	.
!	!	!	!LO:MO:mod=-go	!	!	!	!
.	.	1.d	-Go	2f\	paſ-	2a/	-Go
.	.	.	.	2g\	-tor	2dd\	ſum
=5-	=5-	=5-	=5-	=5-	=5-	=5-	=5-
0r	.	.	.	1a	bo-	2ff\	paſ-
.	.	2A/	ſum	.	.	2.ee\	-tor
.	.	2c/	paſ-	1g	-nus	.	.
.	.	.	.	.	.	4dd\	.
.	.	2d\	-tor	.	.	2b/	bo-
=6-	=6-	=6-	=6-	=6-	=6-	=6-	=6-
1C	E-	1e	bo-	2r	.	1cc	-nus
*	*	*	*	*	*ij	*	*
!	!	!	!	!	!LO:MO:mod=e-	!	!
.	.	.	.	2.G/	E-	.	.
*	*	*	*	*	*	*	*Xij
!	!LO:MO:mod=-go	!	!	!	!	!	!
1.G	-Go	1d	-nus	.	.	2b/	e-
.	.	.	.	4A/	.	.	.
.	.	.	.	4B/	.	1dd\	-go
.	.	.	.	4c/	.	.	.
=7-	=7-	=7-	=7-	=7-	=7-	=7-	=7-
*	*	*	*ij	*	*	*	*
!	!	!	!LO:MO:mod=e-	!	!	!	!
.	.	2B/	E-	4d/	.	.	.
.	.	.	.	4e/	.	.	.
!	!	!	!LO:MO:mod=-go	!	!	!	!
2D/	ſum	1A	-Go	4f\	.	2dd\	ſum
.	.	.	.	4g\	.	.	.
2F/	paſ-	.	.	2a\	go	2cc\	.
2G\	-tor	2B/	ſum	2.g\	ſum	2b/	paſ-
=8-	=8-	=8-	=8-	=8-	=8-	=8-	=8-
1A	bo-	2.c/	paſ-	.	.	2a/	-tor
.	.	.	.	8f\	.	.	.
.	.	.	.	8e\	.	.	.
.	.	.	.	2f\	paſ-	2.cc\	bo-
.	.	4d\	.	.	.	.	.
1G	-nus	4e\	.	2g\	-tor	.	.
.	.	4f\	.	.	.	4b/	.
.	.	2.g\	-tor	2g\	bo-	2b/	.
*	*	*	*	*	*	*custos:a	*
!	!	!	!	!	!	!LO:LB:g=original	!
=9-	=9-	=9-	=9-	=9-	=9-	=9-	=9-
1r	.	.	.	1d	.	1a	.
.	.	4f\	.	.	.	.	.
.	.	2f\	bo-	.	.	.	.
*	*ij	*	*	*custos:e	*	*	*
!	!	!	!	!LO:LB:g=original	!	!	!
1C	E-	2g\	-nus	1e	.	0g	-nus
*	*	*	*Xij	*	*	*	*
.	.	2.G/	e-	.	.	.	.
=10-	=10-	=10-	=10-	=10-	=10-	=10-	=10-
1.G	-Go	.	.	1.d	.	.	.
.	.	4A/	.	.	.	.	.
.	.	4B/	.	.	.	.	.
.	.	4c/	.	.	.	.	.
*	*	*custos:d	*	*	*	*	*
!	!	!LO:LB:g=original	!	!	!	!	!
.	.	2d\	.	.	.	0r	.
2D/	ſum	2.f\	-go	2a\	-nus	.	.
*	*	*	*	*	*Xij	*	*
=11-	=11-	=11-	=11-	=11-	=11-	=11-	=11-
2F/	paſ-	.	.	2a\	e-	.	.
.	.	4e\	.	.	.	.	.
2G\	-tor	1d	ſum	2g\	-go	.	.
1A	bo-	.	.	2f\	ſum	1a	e-
.	.	2c/	paſ-	2e/	paſ-	.	.
=12-	=12-	=12-	=12-	=12-	=12-	=12-	=12-
1G	-nus	2d\	-tor	4g\	-tor	2b/	-go
.	.	.	.	4f\	.	.	.
.	.	2B/	bo-	4e/	.	2dd\	ſum
.	.	.	.	4d/	.	.	.
1r	.	2A/	-nus,	2e/	.	2dd\	paſ-
.	.	2A/	Al-	2e/	bo-	2cc\	-tor
*	*Xij	*	*	*	*	*	*
=13-	=13-	=13-	=13-	=13-	=13-	=13-	=13-
2r	.	2B/	-le-	1d	-nus,	2.dd\	bo-
2D/	Al-	2d\	-lu-	.	.	.	.
.	.	.	.	.	.	4cc\	.
2E/	-le-	1G	-ia	2r	.	4b/	.
.	.	.	.	.	.	4a/	.
1G\	.	.	.	2d/	Al-	2b/	.
=14-	=14-	=14-	=14-	=14-	=14-	=14-	=14-
.	.	2r	.	2e/	-le-	2a/	-nus,
2F/	-lu-	2A/	Al-	2f\	-lu-	2.dd\	Al-
2G\	-ia,	2B/	-le-	2d/	-ia,	.	.
.	.	.	.	.	.	4cc\	.
*	*ij	*	*	*	*ij	*	*
2G\	Al-	2d\	.	2g\	Al-	2b/	.
*custos:C	*	*	*	*	*	*	*
!LO:LB:g=original	!	!	!	!	!	!	!
=15-	=15-	=15-	=15-	=15-	=15-	=15-	=15-
2C/	-le-	4c/	-lu-	2e/	-le-	2a/	.
.	.	4B/	.	.	.	.	.
2E/	-lu-	4A/	.	2c/	.	1g	-le-
.	.	4G/	.	.	.	.	.
1D	-ia,	1A	.	1d	-lu-	.	.
.	.	.	.	.	.	2f/	-lu-
*	*Xij	*	*	*	*	*	*
=16-	=16-	=16-	=16-	=16-	=16-	=16-	=16-
2r	.	1G	-ia,	0d	-ia,	00g	-ia,
!	!LO:MO:mod=Et	!	!	!	!	!	!
1G	(Et)	.	.	.	.	.	.
.	.	1r	.	.	.	.	.
2G\	cog-	.	.	.	.	.	.
*	*	*	*	*	*Xij	*	*
=17-	=17-	=17-	=17-	=17-	=17-	=17-	=17-
2c\	-noſ-	2r	.	0r	.	.	.
!	!	!	!LO:MO:mod=Et	!	!	!	!
2B\	-co	1G	(Et)	.	.	.	.
2G\	o-	.	.	.	.	.	.
!	!LO:MO:mod=-ves	!	!	!	!	!	!
2B\	-ues	2G/	cog-	.	.	.	.
=18-	=18-	=18-	=18-	=18-	=18-	=18-	=18-
2A\	me-	2c/	-noſ-	2r	.	00r	.
!	!	!	!	!	!LO:MO:mod=Et	!	!
1G	.	2B/	-co	1d	(Et)	.	.
.	.	2G/	o-	.	.	.	.
!	!	!	!LO:MO:mod=-ves	!	!	!	!
2F/	.	2A/	-ues	2d/	cog-	.	.
=19-	=19-	=19-	=19-	=19-	=19-	=19-	=19-
2E/	.	2B/	me-	1.g	-noſ-	.	.
2C/	.	2c/	.	.	.	.	.
1D	-as,	1A	.	.	.	.	.
.	.	.	.	2f\	-co	.	.
*	*	*custos:G	*	*	*	*	*
!	!	!LO:LB:g=original	!	!	!	!	!
=20-	=20-	=20-	=20-	=20-	=20-	=20-	=20-
1r	.	1G	-as,	2d/	o-	2r	.
!	!	!	!	!	!LO:MO:mod=-ves	!	!LO:MO:mod=Et
.	.	.	.	2e/	-ues	1g	(Et)
*	*ij	*	*	*custos:c	*	*	*
!	!LO:MO:mod=et	!	!	!LO:LB:g=original	!	!	!
1C	(Et)	2r	.	2.c/	me-	.	.
*	*	*	*ij	*	*	*	*
!	!	!	!LO:MO:mod=et	!	!	!	!
.	.	2.G/	(Et)	.	.	2g/	cog-
.	.	.	.	4d/	.	.	.
=21-	=21-	=21-	=21-	=21-	=21-	=21-	=21-
2C/	cog-	.	.	2e/	.	2cc\	-noſ-
.	.	4A/	.	.	.	.	.
1G	-noſ-	4B/	.	1d	-as	2b/	-co
.	.	4c/	.	.	.	.	.
.	.	1.d	cog-	.	.	2g/	o-
!	!	!	!	!	!	!	!LO:MO:mod=-ves
2G\	-co	.	.	1g\	o-	2b/	-ues
=22-	=22-	=22-	=22-	=22-	=22-	=22-	=22-
2D/	o-	.	.	.	.	1a	me-
!	!LO:MO:mod=-ves	!	!	!	!LO:MO:mod=-ves	!	!
2F/	-ues	2A/	-noſ-	2f\	-ues	.	.
2E/	me-	2B/	-co	2g\	me-	1g	-as,
4C/	.	2c/	o-	1e\	-as	.	.
4D/	.	.	.	.	.	.	.
*	*	*	*	*	*	*custos:dd	*
!	!	!	!	!	!	!LO:LB:g=original	!
=23-	=23-	=23-	=23-	=23-	=23-	=23-	=23-
!	!	!	!LO:MO:mod=-ves	!	!	!	!
4E/	.	2.G/	-ues	.	.	2r	.
4F/	.	.	.	.	.	.	.
*	*	*	*	*	*	*	*ij
!	!	!	!	!	!	!	!LO:MO:mod=et
2.G\	.	.	.	4d/	.	1dd	(Et)
.	.	4A/	.	4c/	.	.	.
.	.	4B/	.	1d	.	.	.
4E/	.	4c/	.	.	.	.	.
4F/	.	1d\	me-	.	.	2dd\	cog-
8E/	.	.	.	.	.	.	.
8D/	.	.	.	.	.	.	.
=24-	=24-	=24-	=24-	=24-	=24-	=24-	=24-
1E	.	.	.	2r	.	1.gg	-noſ-
!	!	!	!	!	!LO:MO:mod=et	!	!
.	.	2c/	.	2g\	(Et)	.	.
1D	-as,	0d	-as,	2b-X\	cog-	.	.
.	.	.	.	1a\	-noſ-	2ff\	-co
*custos:d	*Xij	*	*	*	*	*	*
!LO:LB:g=original	!	!	!	!	!	!	!
=25-	=25-	=25-	=25-	=25-	=25-	=25-	=25-
2r	.	.	.	.	.	2dd\	o-
!	!	!	!	!	!	!	!LO:MO:mod=-ves
1d	Al-	.	.	2f\	-co	2ff\	-ues
.	.	1r	.	2g\	o-	1ee	me-
!	!	!	!	!	!LO:MO:mod=-ves	!	!
2c\	-le-	.	.	2a\	-ues	.	.
=26-	=26-	=26-	=26-	=26-	=26-	=26-	=26-
1d	-lu-	2r	.	2.f\	me-	2dd\	-as,
*	*	*	*	*	*	*	*Xij
.	.	1d	Al-	.	.	2.a/	Al-
.	.	.	.	8e/	.	.	.
.	.	.	.	8d/	.	.	.
1A	-ia,	.	.	1e	.	.	.
.	.	.	.	.	.	4b/	.
.	.	2c/	-le-	.	.	1cc\	.
=27-	=27-	=27-	=27-	=27-	=27-	=27-	=27-
2r	.	2d\	.	2f\	-as,	.	.
*	*ij	*	*	*	*	*	*
1G	Al-	2G/	-lu-	2g\	Al-	2b/	le-
.	.	2A/	-ia,	2d/	-le-	1a	-lu-
2F/	-le-	1c\	Al-	2f\	.	.	.
=28-	=28-	=28-	=28-	=28-	=28-	=28-	=28-
1G	-lu-	.	.	4e/	.	1g	-ia,
.	.	.	.	4d/	.	.	.
.	.	2B/	-le-	1g	.	.	.
1D	.	1A	-lu-	.	.	2r	.
!	!	!	!	!	!	!	!LO:MO:mod=et
.	.	.	.	2f\	-lu-	1dd\	(Et)
=29-	=29-	=29-	=29-	=29-	=29-	=29-	=29-
0G	-ia	1G	-ia,	1g	-ia,	.	.
.	.	.	.	.	.	2cc\	cog-
*	*	*	*	*custos:g	*	*	*
!	!	!	!	!LO:LB:g=original	!	!	!
.	.	0r	.	2r	.	2ee\	-noſ-
!	!	!	!	!	!LO:MO:mod=et	!	!
.	.	.	.	1g\	(Et)	2dd\	-cunt
*	*Xij	*	*Xij	*	*	*	*
=30-	=30-	=30-	=30-	=30-	=30-	=30-	=30-
00r	.	.	.	.	.	1b	me
.	.	.	.	2e/	cog-	.	.
!	!	!LO:TX:t=P:problem: VHV nie wyświetla pauzy	!	!	!	!	!
.	.	1r	.	2a\	-noſ-	2cc\	me-
.	.	.	.	2g\	-cunt	2dd\	.
=31-	=31-	=31-	=31-	=31-	=31-	=31-	=31-
.	.	2r	.	2e/	me	2ee\	.
!	!	!	!LO:MO:mod=et	!	!	!	!
.	.	1d	(Et)	2f\	me	2dd\	.
.	.	.	.	2d/	me-	4ff\	.
.	.	.	.	.	.	4ee\	.
.	.	2B/	cog-	1g\	.	4dd\	.
.	.	.	.	.	.	4cc\	.
*	*	*custos:e	*	*	*	*	*
!	!	!LO:LB:g=original	!	!	!	!	!
=32-	=32-	=32-	=32-	=32-	=32-	=32-	=32-
2r	.	2e\	-noſ-	.	.	2.b/	.
!	!LO:MO:mod=et	!	!	!	!	!	!
1G	(Et)	2d\	-cunt	4f\	.	.	.
.	.	.	.	4e/	.	4cc\	.
*	*	*	*	*	*	*custos:dd	*
!	!	!	!	!	!	!LO:LB:g=original	!
.	.	2B/	me	2d/	.	2dd\	-ae
2E/	cog-	2.c/	me-	2.e/	.	1g/	me-
=33-	=33-	=33-	=33-	=33-	=33-	=33-	=33-
1A	-noſ-	.	.	.	.	.	.
.	.	4B/	.	4d/	.	.	.
.	.	4c/	.	1c	.	2f/	.
.	.	4d\	.	.	.	.	.
2.G\	-cunt	2e\	.	.	.	2g/	-ae,
*	*	*	*	*	*	*	*ij
!	!	!	!	!	!	!	!LO:MO:mod=et
.	.	2d\	.	2B/	.	2dd\	(Et)
4F/	.	.	.	.	.	.	.
=34-	=34-	=34-	=34-	=34-	=34-	=34-	=34-
2E/	.	2G/	-ae	2c/	-ae,	2ee\	cog-
*	*	*	*	*	*ij	*	*
!	!	!	!	!	!LO:MO:mod=et	!	!
2C/	me	2g\	me	2e/	(Et)	2ee\	-noſ-
2F/	me-	2a\	me-	2f\	cog-	2cc\	-cunt
2G\	.	2.g\	.	2e/	-noſ-	2.ee\	me
=35-	=35-	=35-	=35-	=35-	=35-	=35-	=35-
2A\	.	.	.	2f\	-cunt	.	.
.	.	4f\	.	.	.	4dd\	.
2B\	.	4f\	.	2g\	me	1dd	me-
.	.	8e\	.	.	.	.	.
.	.	8d\	.	.	.	.	.
1A	.	1e	.	1a	me-	.	.
.	.	.	.	.	.	2cc\	.
=36-	=36-	=36-	=36-	=36-	=36-	=36-	=36-
2D/	-ae,	2d\	-ae,	1a	-ae	1dd	-ae
2D/	Al-	2A/	Al-	.	.	.	.
2G\	-le-	2B/	-le-	1r	.	1r	.
2C/	-lu-	2c/	-lu-	.	.	.	.
*	*	*	*	*	*Xij	*	*Xij
=37-	=37-	=37-	=37-	=37-	=37-	=37-	=37-
1D	-ia,	1A	-ia	2r	.	2r	.
.	.	.	.	2d/	Al-	2a/	Al-
2r	.	1r	.	2g\	-le-	2b/	-le-
*	*ij	*	*	*	*	*	*
1A\	Al-	.	.	2c/	-lu-	2cc\	-lu-
=38-	=38-	=38-	=38-	=38-	=38-	=38-	=38-
.	.	2r	.	1f	-ia	2a/	-ia,
*	*	*	*	*	*	*	*ij
2F/	-le-	2A/	Al-	.	.	1dd	Al-
2G\	.	2B/	-le-	1e	Al-	.	.
2A\	.	2c/	.	.	.	2cc\	-le-
*custos:D	*	*	*	*	*	*	*
!LO:LB:g=original	!	!	!	!	!	!	!
=39-	=39-	=39-	=39-	=39-	=39-	=39-	=39-
2D/	.	2.d\	.	2d/	-le-	2b/	-lu-
2.D/	-lu-	.	.	2f\	-lu-	2a/	-ia,
.	.	4c/	.	.	.	.	.
*	*	*	*	*custos:f	*	*	*
!	!	!	!	!LO:LB:g=original	!	!	!
.	.	2B/	.	4f\	.	2.dd\	Al-
4E/	.	.	.	4e/	.	.	.
2F/	.	2A/	.	2.d/	.	.	.
.	.	.	.	.	.	4cc\	.
*	*	*custos:B	*	*	*	*	*
!	!	!LO:LB:g=original	!	!	!	!	!
=40-	=40-	=40-	=40-	=40-	=40-	=40-	=40-
2G\	.	2.B/	-lu-	.	.	4b/	.
.	.	.	.	8c/	.	4a/	.
.	.	.	.	8B/	.	.	.
2E/	.	.	.	2c/	.	1g	-le-
.	.	8A/	.	.	.	.	.
.	.	8G/	.	.	.	.	.
1D	.	1A	.	1d	-ia,	.	.
.	.	.	.	.	.	2f/	-lu-
=41-	=41-	=41-	=41-	=41-	=41-	=41-	=41-
2E/	-ia,	1G	-ia,	2r	.	1g	-ia,
*	*Xij	*	*	*	*	*	*
1G	Al-	.	.	1d	po-	.	.
.	.	2r	.	.	.	0r	.
4F/	.	1A/	po-	2d/	-no	.	.
4E/	.	.	.	.	.	.	.
*	*	*	*	*	*	*	*Xij
=42-	=42-	=42-	=42-	=42-	=42-	=42-	=42-
2D/	.	.	.	1f	a-	.	.
2D/	-le-	2A/	-no	.	.	.	.
*	*	*	*	*	*	*custos:g	*
!	!	!	!	!	!	!LO:LB:g=original	!
1C	-lu-	1c	a-	2e/	-ni-	2r	.
!	!	!	!	!	!LO:MO:mod=-mam	!	!
.	.	.	.	2c/	-ma(m)	1g/	po-
=43-	=43-	=43-	=43-	=43-	=43-	=43-	=43-
1G	-ia,	2B/	-ni-	1d	me-	.	.
!	!	!	!LO:MO:mod=-mam	!	!	!	!
.	.	1G	-ma(m)	.	.	2g/	-no
1r	.	.	.	2d/	-am	1b-X	a-
.	.	2G/	me-	2g\	a-	.	.
=44-	=44-	=44-	=44-	=44-	=44-	=44-	=44-
2r	.	1d	-am	2f\	-ni-	2a/	-ni-
!	!	!	!	!	!LO:MO:mod=-mam	!	!
1D	po-	.	.	2d/	-ma(m)	2f/	-mam
.	.	2r	.	1f	me-	0a	me-
*	*	*	*ij	*	*	*	*
2D/	-no	1A/	po-	.	.	.	.
=45-	=45-	=45-	=45-	=45-	=45-	=45-	=45-
!	!	!	!	!	!LO:MO:mod=-am	!	!
1F	a-	.	.	2c/	-a(m)	.	.
.	.	2A/	-no	2c/	po-	.	.
2E/	-ni-	1c	a-	2.e/	-no	1g	-am
2C/	-mam	.	.	.	.	.	.
.	.	.	.	4f\	.	.	.
=46-	=46-	=46-	=46-	=46-	=46-	=46-	=46-
1E	me-	2B/	-ni-	2g\	.	1r	.
!	!	!	!LO:MO:mod=-mam	!	!	!	!
.	.	2G/	-ma(m)	1g	a-	.	.
*	*	*	*	*	*	*	*ij
1D	-am	1d	me-	.	.	1a	po-
.	.	.	.	1f\	-ni-	.	.
=47-	=47-	=47-	=47-	=47-	=47-	=47-	=47-
1A	me-	1c	-am	.	.	2a/	-no
.	.	.	.	2e/	-mam	1cc	a-
!	!LO:MO:mod=-am	!	!	!	!	!	!
1G	-a(m)	2r	.	2g\	me-	.	.
*	*	*	*Xij	*	*	*	*
.	.	1d\	po-	2G/	-am	2bny/	-ni-
=48-	=48-	=48-	=48-	=48-	=48-	=48-	=48-
*	*	*	*	*	*ij	*	*
1r	.	.	.	2G/	po-	2g/	-mam
.	.	2d\	-no	2G/	-no	2b/	me-
2r	.	2f\	a-	4A/	a-	0a	-am
.	.	.	.	4B/	-ni-	.	.
1A\	po-	2e\	-ni-	4c/	-mam	.	.
.	.	.	.	4d/	me-	.	.
*	*	*	*	*custos:e	*	*	*Xij
!	!	!	!	!LO:PB:g=original	!	!	!
=49-	=49-	=49-	=49-	=49-	=49-	=49-	=49-
.	.	4A/	-mam	1e	-am	.	.
.	.	4B/	.	.	.	.	.
2A\	-no	4c/	.	.	.	.	.
.	.	4d\	.	.	.	.	.
1c	a-	2e\	.	2r	.	1r	.
*	*	*	*	*	*Xij	*	*
.	.	2e\	me-	2e/	po-	.	.
=50-	=50-	=50-	=50-	=50-	=50-	=50-	=50-
2B\	-ni-	0d	-am	2g\	-no	2r	.
2G\	-mam	.	.	2g\	a-	1dd	po-
1B-X	me-	.	.	2f\	-ni-	.	.
.	.	.	.	2d/	-mam	2dd\	-no
*custos:A	*	*custos:A	*	*	*	*	*
!LO:LB:g=original	!	!LO:PB:g=original	!	!	!	!	!
=51-	=51-	=51-	=51-	=51-	=51-	=51-	=51-
2A\	-am	2r	.	1a	me-	1ff	a-
2F/	pro	2A/	pro	.	.	.	.
!	!	!	!	!	!LO:MO:mod=-am	!	!
1A	o-	1c	o-	2a\	-a(m)	2ee\	-ni-
.	.	.	.	2e/	pro	2cc\	-mam
=52-	=52-	=52-	=52-	=52-	=52-	=52-	=52-
!	!LO:MO:mod=-vi-	!	!LO:MO:mod=-vi-	!	!	!	!
2G\	-ui-	2B/	-ui-	1g	o-	1ee	me-
2E/	-bus	2.G/	-bus	.	.	.	.
!	!	!	!	!	!LO:MO:mod=-vi-	!	!
1G	me-	.	.	2g\	-ui-	2dd\	-am
.	.	4A/	.	.	.	.	.
.	.	4B/	.	2.d/	-bus	2gg\	pro
.	.	4c/	.	.	.	.	.
=53-	=53-	=53-	=53-	=53-	=53-	=53-	=53-
2.D/	.	2d\	.	.	.	2gg\	o-
.	.	.	.	4e/	.	.	.
!	!	!	!	!	!	!	!LO:MO:mod=-vi-
.	.	2.A/	me-	4f\	.	2ff\	-ui-
4E/	.	.	.	4g\	.	.	.
4F/	.	.	.	0a	.	2.ff\	-bus
4G\	.	4B/	.	.	.	.	.
1A\	.	4c/	.	.	.	.	.
.	.	4d\	.	.	.	8ee\	.
.	.	.	.	.	.	8dd\	.
*	*	*	*	*	*	*custos:cc	*
!	!	!	!	!	!	!LO:PB:g=original	!
=54-	=54-	=54-	=54-	=54-	=54-	=54-	=54-
.	.	2e\	.	.	.	2cc\	.
2F/	.	2f\	.	.	.	1dd	.
2G\	.	1e	.	2b-X\	me-	.	.
2A\	.	.	.	2a\	.	2cc\	me-
=55-	=55-	=55-	=55-	=55-	=55-	=55-	=55-
!	!LO:MO:mod=-is,	!	!	!	!LO:MO:mod=-is,	!	!LO:MO:mod=-is,
1D	is	2d\	.	2f\	is	0dd	-is
.	.	1g	-is,	1bny	pro	.	.
1d	pro	.	.	.	.	.	.
*	*	*	*ij	*	*	*	*
.	.	2f\	pro	1a\	o-	.	.
=56-	=56-	=56-	=56-	=56-	=56-	=56-	=56-
2.c\	o-	2.e\	o-	.	.	0r	.
!	!	!	!	!	!LO:MO:mod=-vi-	!	!
.	.	.	.	2g\	-ui-	.	.
!	!LO:MO:mod=-vi-	!	!	!	!	!	!
4Bny\	-ui-	4d\	.	.	.	.	.
!	!	!	!LO:MO:mod=-vi-	!	!	!	!
2A\	-bus	2c/	-ui-	2.f\	-bus	.	.
2.G\	me-	2.B/	-bus	.	.	.	.
.	.	.	.	8e/	.	.	.
.	.	.	.	8d/	.	.	.
=57-	=57-	=57-	=57-	=57-	=57-	=57-	=57-
.	.	.	.	2e/	.	1r	.
4F/	.	4A/	.	.	.	.	.
4E/	.	1A	me-	1d	me-	.	.
4D/	.	.	.	.	.	.	.
1E	.	.	.	.	.	1gg	pro
.	.	2G/	.	2c/	.	.	.
=58-	=58-	=58-	=58-	=58-	=58-	=58-	=58-
2D/	-is,	1A	-is,	2d/	-is,	2.ff\	o-
2.D/	Al-	.	.	4d/	Al-	.	.
!	!	!	!	!	!	!	!LO:MO:mod=-vi-
.	.	.	.	4e/	.	4ee\	-ui-
*	*	*	*Xij	*custos:f	*	*	*
!	!	!	!	!LO:LB:g=original	!	!	!
.	.	2.A/	Al-	4f\	.	2dd\	-bus
4E/	.	.	.	4g\	.	.	.
4F/	.	.	.	2a\	.	1cc\	me-
4G\	.	4B/	.	.	.	.	.
=59-	=59-	=59-	=59-	=59-	=59-	=59-	=59-
2A\	.	4c/	.	1e	-le-	.	.
.	.	4d\	.	.	.	.	.
2A\	-le-	4e\	.	.	.	1a	-is,
.	.	4c/	.	.	.	.	.
*	*	*custos:d	*	*	*	*	*
!	!	!LO:LB:g=original	!	!	!	!	!
2D/	-lu-	2.d\	-le-	1f	-lu-	.	.
2D/	-ia,	.	.	.	.	2.dd\	Al-
.	.	4c/	.	.	.	.	.
=60-	=60-	=60-	=60-	=60-	=60-	=60-	=60-
*	*ij	*	*	*	*	*	*
2.G\	Al-	4B/	.	2d/	-ia,	.	.
.	.	4A/	.	.	.	4cc\	.
*	*	*	*	*	*ij	*	*
.	.	1G	.	2.g\	Al-	4b/	.
4F/	.	.	.	.	.	4a/	.
*custos:E	*	*	*	*	*	*	*
!LO:PB:g=original	!	!	!	!	!	!	!
4E/	.	.	.	.	.	2g/	.
4D/	.	.	.	4f\	.	.	.
2C/	.	2.c/	-lu-	4e/	.	2.a/	-le-
.	.	.	.	4d/	.	.	.
=61-	=61-	=61-	=61-	=61-	=61-	=61-	=61-
1E	le-	.	.	2c/	-le-	.	.
.	.	4B/	.	.	.	4g/	.
.	.	4A/	.	2B/	-lu-	1g	.
.	.	4G/	.	.	.	.	.
1D	-lu-	1A	.	1d	-ia	.	.
.	.	.	.	.	.	2f/	-lu-
*	*	*	*	*	*Xij	*	*
=62-	=62-	=62-	=62-	=62-	=62-	=62-	=62-
1G	-ia,	2G/	-ia,	2r	.	1g	-ia,
.	.	1g	pro	1b-X	pro	.	.
*	*Xij	*	*	*	*	*	*
1d	pro	.	.	.	.	00r	.
.	.	2f\	.	1a\	o-	.	.
=63-	=63-	=63-	=63-	=63-	=63-	=63-	=63-
2.c\	o-	2.e\	o-	.	.	.	.
!	!	!	!	!	!LO:MO:mod=-vi-	!	!
.	.	.	.	2g\	-ui-	.	.
!	!LO:MO:mod=-vi-	!	!LO:MO:mod=-vi-	!	!	!	!
4B\	-ui-	4d\	-ui-	.	.	.	.
2A\	-bus	2c/	-bus	2.f\	-bus	.	.
2.G\	me-	2.B/	me-	.	.	.	.
.	.	.	.	8e/	.	.	.
.	.	.	.	8d/	.	.	.
=64-	=64-	=64-	=64-	=64-	=64-	=64-	=64-
.	.	.	.	2e/	.	.	.
4F/	.	4A/	.	.	.	.	.
4E/	.	1A	.	1d	me-	.	.
4D/	.	.	.	.	.	.	.
*	*	*	*	*	*	*	*ij
1E	.	.	.	.	.	1gg	Al-
.	.	2G/	.	2c/	-is,	.	.
=65-	=65-	=65-	=65-	=65-	=65-	=65-	=65-
2D/	-is,	1A	-is,	2d/	Al-	2.ff\	.
2.D/	Al-	.	.	4d/	.	.	.
.	.	.	.	4e/	.	4ee\	.
.	.	2.A/	Al-	4f\	.	2dd\	.
4E/	.	.	.	4g\	.	.	.
4F/	.	.	.	2a\	.	1cc\	.
4G\	.	4B/	.	.	.	.	.
=66-	=66-	=66-	=66-	=66-	=66-	=66-	=66-
2A\	.	4c/	.	1e	-le-	.	.
.	.	4d\	.	.	.	.	.
2A\	le-	4e\	.	.	.	1a	.
.	.	4c/	.	.	.	.	.
2D/	-lu-	2.d\	-le-	1f	-lu-	.	.
2D/	-ia,	.	.	.	.	2.dd\	-le-
.	.	4c/	.	.	.	.	.
*	*	*custos:B	*	*custos:d	*	*	*
!	!	!LO:LB:g=original	!	!LO:LB:g=original	!	!	!
=67-	=67-	=67-	=67-	=67-	=67-	=67-	=67-
*	*ij	*	*	*	*	*	*
2.G\	Al-	4B/	.	2d/	-ia	.	.
.	.	4A/	.	.	.	4cc\	.
*	*	*	*	*	*ij	*	*
.	.	1G	.	2.g\	Al-	4b/	.
4F/	.	.	.	.	.	4a/	.
*	*	*	*	*	*	*custos:g	*
!	!	!	!	!	!	!LO:LB:g=original	!
4E/	.	.	.	.	.	2g/	.
4D/	.	.	.	4f\	.	.	.
2C/	-le-	2.c/	-lu-	4e/	.	2.a/	.
.	.	.	.	4d/	.	.	.
=68-	=68-	=68-	=68-	=68-	=68-	=68-	=68-
1E	-lu-	.	.	2c/	-le-	.	.
.	.	4B/	.	.	.	4g/	.
.	.	4B/	.	2B/	-lu-	1g	.
.	.	8A/	.	.	.	.	.
.	.	8G/	.	.	.	.	.
1D	-ia,	1A	.	1d	-ia	.	.
.	.	.	.	.	.	2f/	-lu-
*custos:G	*Xij	*	*	*	*	*	*
!LO:LB:g=original	!	!	!	!	!	!	!
=69-	=69-	=69-	=69-	=69-	=69-	=69-	=69-
!	!	!	!	!	!	!LO:N:vis=00	!
2r	.	1G	-ia	1d	Al-	000.g/	-ia
2.G\	Al-	.	.	.	.	.	.
.	.	2r	.	2.G/	-le-	.	.
4A\	.	.	.	.	.	.	.
4B\	.	2.G/	Al-	.	.	.	.
4c\	.	.	.	8A/	.	.	.
.	.	.	.	8B/	.	.	.
*	*	*	*	*	*	*	*Xij
=70-	=70-	=70-	=70-	=70-	=70-	=70-	=70-
2d\	.	.	.	2c/	.	.	.
.	.	4A/	.	.	.	.	.
2.G\	-le-	4B/	.	2d/	.	.	.
.	.	4c/	.	.	.	.	.
.	.	2d\	.	2B/	.	.	.
4F/	.	.	.	.	.	.	.
4E/	.	2.G/	-le-	1e\	-lu-	.	.
4D/	.	.	.	.	.	.	.
=71-	=71-	=71-	=71-	=71-	=71-	=71-	=71-
2C/	.	.	.	.	.	.	.
.	.	4A/	.	.	.	.	.
2BB/	.	2B/	.	2d/	.	.	.
4C/	-lu-	4G/	-lu-	4e/	.	.	.
4D/	.	4F/	.	4d/	.	.	.
4E/	.	4G/	.	4B/	.	.	.
4D/	.	4A/	.	4c/	.	.	.
=72-	=72-	=72-	=72-	=72-	=72-	=72-	=72-
!LO:N:vis=00	!	!LO:N:vis=00	!	!	!	!	!
00.G	-ia.	00.B	-ia.	2d/	ia	.	.
*	*	*	*	*	*Xij	*	*
.	.	.	.	2B/	Al-	.	.
.	.	.	.	2B/	-le-	.	.
.	.	.	.	2G/	-lu-	.	.
=73-	=73-	=73-	=73-	=73-	=73-	=73-	=73-
.	.	.	.	00d	-ia.	.	.
==	==	==	==	==	==	==	==
*-	*-	*-	*-	*-	*-	*-	*-
!!!system-decoration: [(*)]
!!!RDF**kern: l =terminal long
!!!ENC: Filip Voros
!!!END: 2022-10-23
!!!ENC: Jan Barakat
!!!END: 2022-11-21
!!!ENC-modern: Andrzej Borzym
!!!END-modern: 2022-11-22
!!!YEC: Copyright 2022 Narodowy Instytut Fryderyka Chopina (https://polishscores.org)
!!!YEM: License CC-BY-4.0 (https://creativecommons.org/licenses/by/4.0)
